!!!!SEGMENT: artfugue-005.krn
!!!COM: Bach, Johann Sebastian
!!!CDT: 1685/03/31-1750/07/28
!!!OPR@@DE: Die Kunst der Fuge
!!!OPR@EN: The Art of the Fugue
!!!OTL: Contrapunctus 5, a 4.
!!!SCA: BWV 1080
!!!voices: 4
!!!AGN: Stretto fugue
**kern	**kern	**kern	**kern
*part4	*part3	*part2	*part1
*staff4	*staff3	*staff2	*staff1
*I"	*I"	*I"	*I"
*clefF4	*clefC4	*clefC3	*clefC1
*mclefF4	*mclefGv2	*mclefG2	*mclefG2
*k[b-]	*k[b-]	*k[b-]	*k[b-]
*d:	*d:	*d:	*d:
*M4/4	*M4/4	*M4/4	*M4/4
*met(c)	*met(c)	*met(c)	*met(c)
*mmet(c)	*mmet(c)	*mmet(c)	*mmet(c)
*MM112	*MM112	*MM112	*MM112
=1	=1	=1	=1
1r	1r	2a	1r
.	.	4.d	.
.	.	8e	.
=2	=2	=2	=2
1r	1r	4.f	1r
.	.	8g	.
.	.	2a	.
=3	=3	=3	=3
1r	1r	2b-	1r
.	.	4.a	.
.	.	8g	.
=4	=4	=4	=4
2D	1r	[2f	1r
4.A	.	8fL]	.
.	.	8e	.
.	.	8f	.
8G	.	8gJ	.
=5	=5	=5	=5
4.F	1r	8aL	1r
.	.	8b-J	.
.	.	[4cc	.
8E	.	.	.
2D	.	8cc]	.
.	.	8b-L	.
.	.	8a	.
.	.	8b-J	.
=6	=6	=6	=6
2C#X	1r	8eL	1r
.	.	8fJ	.
.	.	[4g	.
4.D	.	8g]	.
.	.	8aL	.
.	.	8f	.
8E	.	8gJ	.
=7	=7	=7	=7
[2F	1r	8aL	2dd
.	.	8g	.
.	.	8f	.
.	.	8eJ	.
8FL]	.	8dL	4.aa
8G	.	8BXJ	.
8F	.	4c#X	.
8EJ	.	.	8gg
=8	=8	=8	=8
8DL	1r	[2d	4.ff
8F	.	.	.
8G	.	.	.
8AJ	.	.	8ee
2B-	.	8dL]	2dd
.	.	8e	.
.	.	8f	.
.	.	8gJ	.
!!LO:LB:g=original
=9	=9	=9	=9
4.A	1r	8aL	2cc#X
.	.	8eJ	.
.	.	[4a	.
8AA	.	.	.
4.BBX	.	8a]L	4.dd
.	.	8dJ	.
.	.	4g	.
8C#X	.	.	8ee
=10	=10	=10	=10
4.D	2d	8fL	[2ff
.	.	8a	.
.	.	8bX	.
8E	.	8cc#XJ	.
4F	4.A	8ddL	8ffL]
.	.	8aJ	8aa
4D	.	4dd	8gg
.	8BX	.	8ffJ
=11	=11	=11	=11
[2A	4.c	2ccn	8eeL
.	.	.	8gg#
.	.	.	8aaX
.	8d	.	8bbXJ
8AL]	2e	2r	[2ccc
8A	.	.	.
8B-	.	.	.
8cJ	.	.	.
=12	=12	=12	=12
2d	2f	2r	8cccL]
.	.	.	8ccc
.	.	.	8bb-X
.	.	.	8aaJ
!!LO:MO:ori
*	*	*clefC1	*
!!LO:MO:end
[2G	4.e	8r	[2bb-
.	.	8aaL	.
.	.	8gg	.
.	8d	8ffJ	.
=13	=13	=13	=13
8GL]	[2c#X	[2ee	8bb-L]
8G	.	.	8bb-
8F	.	.	8aa
8EJ	.	.	8ggJ
[2F	8c#L]	8eeL]	[2aa
.	8A	8gg	.
.	8BX	8ff	.
.	8c#XJ	8eeJ	.
=14	=14	=14	=14
8FL]	[2d	2ff	4aa]
8F	.	.	.
8E	.	.	4bb-
8DJ	.	.	.
2E	8dL]	[2ee	[2gg
.	8d	.	.
.	8c#X	.	.
.	8BXJ	.	.
=15	=15	=15	=15
[1A	4c#X	8eeL]	2.gg]
.	.	8a	.
.	8dL	8bX	.
.	8eJ	8cc#XJ	.
.	8fL	8ddL	.
.	8e	8aJ	.
.	8f	[4dd	4ff
.	8gJ	.	.
!!LO:LB:g=original
=16	=16	=16	=16
2A_	4a	8ddL]	2ee
.	.	8dd	.
.	4e	8cc#X	.
.	.	8bXJ	.
8AL]	2a	2cc#	2r
8B-	.	.	.
8A	.	.	.
8GJ	.	.	.
!!LO:MO:ori
*	*	*clefC3	*
!!LO:MO:end
=17	=17	=17	=17
2.F	1r	8r	2dd
.	.	8AL	.
.	.	8BX	.
.	.	8c#XJ	.
.	.	8dL	4.a
.	.	8eJ	.
4D	.	[4f	.
.	.	.	8bX
=18	=18	=18	=18
4A	1r	8fL]	4.cc
.	.	8gJ	.
4F	.	[4a	.
.	.	.	8dd
[2c	.	8aL]	2ee
.	.	8g	.
.	.	8f	.
.	.	8eJ	.
=19	=19	=19	=19
8cL]	1r	4d	2ff
8c	.	.	.
8BX	.	[4dd	.
8AJ	.	.	.
2G#	.	8ddL]	4.ee
.	.	8dd	.
.	.	8cc	.
.	.	8bXJ	8dd
=20	=20	=20	=20
[2A	2A	8aL	[2cc
.	.	8e	.
.	.	8f#X	.
.	.	8g#J	.
8AL]	4.e	[2aX	8ccL]
8GnJ	.	.	8bX
4F	.	.	8cc
.	8d	.	8ddJ
=21	=21	=21	=21
[1E	4.c	8aL]	4ee
.	.	8g#	.
.	.	8aX	[4cc#
.	8BX	8bXJ	.
.	2A	2cc	8cc#L]
.	.	.	8ff#X
.	.	.	8eeX
.	.	.	8ddJ
!!LO:LB:g=original
=22	=22	=22	=22
2E]	2G#	[2bX	8eeL
.	.	.	8ddn
.	.	.	8cc
.	.	.	8bXJ
2r	4.AX	8bL]	4.cc
.	.	8b	.
.	.	8a	.
.	8BX	8g#J	8b
=23	=23	=23	=23
2A	[2c	8aL	[2a
.	.	8gn	.
.	.	8f	.
.	.	8eJ	.
4.D	8cL]	4.f	8aL]
.	8d	.	8b-X
.	8c	.	8a
8E	8B-XJ	8g	8gJ
=24	=24	=24	=24
4.F	2A	4c	8aL
.	.	.	8cc
.	.	4r	8dd
8G	.	.	8eeJ
2A	8r	2r	8ffL
.	8eL	.	8ggJ
.	8d	.	[4aa
.	8c#XJ	.	.
=25	=25	=25	=25
2B-	[2d	1r	8aaL]
.	.	.	8gg
.	.	.	8ff
.	.	.	8eeJ
4.A	8dL]	.	8ffL
.	8c#XJ	.	8ee
.	4e	.	8dd
8G	.	.	8cc#XJ
=26	=26	=26	=26
[2F	2.A	2d	8ddL
.	.	.	8a
.	.	.	8bX
.	.	.	8cc#XJ
8FL]	.	4.a	[2dd
8E	.	.	.
8F	[4d	.	.
8GJ	.	8g	.
=27	=27	=27	=27
2A	4.d]	4.f	8ddL]
.	.	.	8cc
.	.	.	8b-
.	8c	8e	8aJ
8r	[2B-	2d	[2g
8AL	.	.	.
8G	.	.	.
8FJ	.	.	.
!!LO:LB:g=original
=28	=28	=28	=28
2E	8B-L]	2c#X	2g_
.	8B-	.	.
.	8A	.	.
.	8GJ	.	.
[2D	4.A	4.d	8gL]
.	.	.	8fJ
.	.	.	4b-
.	8G	8e	.
=29	=29	=29	=29
8DL]	4A	[2f	4a
8D	.	.	.
8C	4B-	.	4r
8BB-J	.	.	.
2AA	[2c	8fL]	2r
.	.	8g	.
.	.	8f	.
.	.	8e-J	.
=30	=30	=30	=30
[2BB-	8cL]	[1d	1r
.	8B-	.	.
.	8A	.	.
.	8GJ	.	.
8BB-L]	4F	.	.
8BB-	.	.	.
8AA	4G	.	.
8GGJ	.	.	.
=31	=31	=31	=31
2FF#X	[2A/	8dL]	1r
.	.	8e-	.
.	.	8d	.
.	.	8cJ	.
[2GG	8AL]	[2B-	.
.	8G	.	.
.	8F	.	.
.	8EJ	.	.
=32	=32	=32	=32
8GGL]	4D	2B-_	1r
8GG	.	.	.
8FF	4E	.	.
8EEJ	.	.	.
4DD	4F	8B-L>]	.
.	.	8d	.
4EE	[4G	8c	.
.	.	8B-J	.
=33	=33	=33	=33
2FF	8GL]	4.A	2r
.	8GJ	.	.
.	2F	.	.
.	.	8a	.
4.C	.	8gL	2cc
.	.	8fJ	.
.	4E	4g	.
8BB-	.	.	.
!!LO:LB:g=original
=34	=34	=34	=34
4.AA	8FL	4c	4.f
.	8C	.	.
.	8D	4r	.
8GG	8EJ	.	8g
2FF	4F	8r	4.a
.	.	8fL	.
.	4r	8e	.
.	.	8dJ	8b-
=35	=35	=35	=35
2EE	4r	8gL	2cc
.	.	8aJ	.
.	8r	[4b-	.
.	8C	.	.
4.FF	4.F	8b-L]	2dd
.	.	8aJ	.
.	.	4b-	.
8GG	8E	.	.
=36	=36	=36	=36
[2AA	8FL	4a	4.cc
.	8AJ	.	.
.	[4c	4e	.
.	.	.	8b-
8AAL]	2c_	[2f	[2a
8BB-	.	.	.
8AA	.	.	.
8GGJ	.	.	.
=37	=37	=37	=37
[2FF	8cL]	8fL]	8aL]
.	8B-	8e	8g
.	8A	8f	8a
.	8GJ	8gJ	8b-J
8FFL]	[2F	[2a	[2cc
8AA	.	.	.
8BB-	.	.	.
8CJ	.	.	.
=38	=38	=38	=38
[2D	8FL]	8aL]	8ccL]
.	8E	8b-	8dd
.	8F	8a	8cc
.	8GJ	8gJ	8b-J
8DL]	4A/	4f	4a
8E	.	.	.
8D	4r	4a	[4ff
8CJ	.	.	.
=39	=39	=39	=39
8BBXL	1r	2g	4ff]
8D	.	.	.
8C	.	.	2ee
8BBJ	.	.	.
8AAL	.	2f	.
8GG	.	.	.
8AA	.	.	[4dd
8BBJ	.	.	.
!!LO:LB:g=original
=40	=40	=40	=40
8CL	1r	2e	4dd]
8D	.	.	.
8E	.	.	2cc
8FJ	.	.	.
8GL	.	2d	.
8A	.	.	.
8G	.	.	[4b-
8FJ	.	.	.
=41	=41	=41	=41
8EL	2c	4c	4.b-]
8CJ	.	.	.
2F	.	4r	.
.	.	.	8a
.	4.G	2g	8ccL
.	.	.	8bXJ
4E-	.	.	4cc
.	8A	.	.
=42	=42	=42	=42
[1D	4.B-	4.dd	8f#XL
.	.	.	8dJ
.	.	.	[4g
.	8c	8cc	.
.	2d	4.b-	8gL]
.	.	.	8ggJ
.	.	.	4ffn
.	.	8a	.
=43	=43	=43	=43
8DL]	2e-	2g	4.b-
8GGJ	.	.	.
[4C	.	.	.
.	.	.	8a
8CL]	4.d	2f#X	4dd
8C	.	.	.
8BB-	.	.	4r
8AAJ	8c	.	.
=44	=44	=44	=44
8GGL	[2B-	4.g	4r
8D	.	.	.
8E	.	.	2r
8F#XJ	.	8a	.
[2G	8B-L]	[2b-	.
.	8A	.	.
.	8B-	.	4dd
.	8cJ	.	.
=45	=45	=45	=45
4G]	[2d	8b-L]	2.gg
.	.	8cc	.
4F	.	8b-	.
.	.	8aJ	.
[2E-	8dL]	8gL	.
.	8d	8b-	.
.	8c	8a	8ffL
.	8B-J	8gJ	8ee-J
!!LO:LB:g=original
=46	=46	=46	=46
8E-XL]	[2c	4a	[2ff
8E-	.	.	.
8D	.	4cc	.
8CJ	.	.	.
4.D	8cL]	4.f	8ffL]
.	8FJ	.	8ee-J
.	[4B-	.	[4dd
8E-X	.	8g	.
=47	=47	=47	=47
2F	4B-]	8fL	8ddL]
.	.	8e-	8g
.	4A	8d	8f
.	.	8cJ	8e-J
4.BB-	4B-	4d	8dL
.	.	.	8f
.	4r	4r	8g
8C	.	.	8aJ
=48	=48	=48	=48
4.D	2r	8r	8b-L
.	.	8AL	8fJ
.	.	8B-	[4b-
8E-	.	8cJ	.
2F	2f	8dL	8b-L]
.	.	8cJ	8cc
.	.	4e-	8b-
.	.	.	8aJ
=49	=49	=49	=49
2G	4.B-	4d	8b-L
.	.	.	8ccJ
.	.	8gL	[4dd
.	8c	8aJ	.
4.F	4.d	8b-L	8ddL]
.	.	8ccJ	8ee-J
.	.	[4dd	[4ff
8E-	8e-	.	.
=50	=50	=50	=50
[2D	2f	8ddL]	8ffL]
.	.	8cc	8ee-
.	.	8b-	8dd
.	.	8aJ	8ccJ
8DL]	2g	8gL	4.b-
8C	.	8aJ	.
8D	.	[4b-	.
8E-J	.	.	8cc
=51	=51	=51	=51
[1F	4.f	8b-L]	4dd
.	.	8gJ	.
.	.	[4a	4cc
.	8e-	.	.
.	[2d	8aL]	[2ff
.	.	8f	.
.	.	8g	.
.	.	8aJ	.
!!LO:LB:g=original
=52	=52	=52	=52
1F_	8dL]	[2b-	8ffL]
.	8c	.	8ee
.	8d	.	8ff
.	8enJ	.	8ggJ
.	[2f	8b-L]	[2cc
.	.	8b-	.
.	.	8a	.
.	.	8gJ	.
=53	=53	=53	=53
4F]	4f]	4a	4cc]
4r	4r	4r	4ff
2r	4f	4r	4.cc
.	[4c	4cc	.
.	.	.	8dd
=54	=54	=54	=54
4c	8cL]	4.g	4.ee-
.	8dJ	.	.
[4G	[4e-	.	.
.	.	8a	8ff
8GL]	8e-L]	4.b-	4gg
8AJ	8fJ	.	.
[4B-	4g	.	[4dd
.	.	8cc	.
=55	=55	=55	=55
8B-L]	4.d	4dd	8ddL]
8cJ	.	.	8eenJ
4d	.	[4a	[4ff
.	8en	.	.
4.A	4.f	8aL]	8ffL]
.	.	8b-J	8ggJ
.	.	[4cc	4aa
8B-	8g	.	.
=56	=56	=56	=56
4c	4a	4cc]	8eeL
.	.	.	8ffJ
8GL	8eL	2b-	4gg
8AJ	8fJ	.	.
4B-	4g	.	8ddL
.	.	.	8eeJ
8FL	[4d	[4a	4ff
8GJ	.	.	.
=57	=57	=57	=57
[2A	8dL]	8aL]	2ee
.	8d	8bX	.
.	8c#X	8a	.
.	8BXJ	8g#J	.
8AL]	2c#	4aX	4.aa
8G	.	.	.
8F	.	4r	.
8EJ	.	.	8gg
!!LO:LB:g=original
=58	=58	=58	=58
2D	8dL	2r	4.ff
.	8AJ	.	.
.	[4cn	.	.
.	.	.	8ee
4r	8cL]	2d	2dd
.	8A	.	.
[4G	8B-	.	.
.	8gJ	.	.
=59	=59	=59	=59
8GL]	4e	4.a	2cc#X
8EJ	.	.	.
[2.F	[4A	.	.
.	.	8g	.
.	8AL]	4.f	4.dd
.	8A	.	.
.	8BX	.	.
.	8c#XJ	8e	8ee
=60	=60	=60	=60
8FL]	4d	2d	[2ff
8E	.	.	.
8F	4r	.	.
8GJ	.	.	.
[2A	4r	2c#X	8ffL]
.	.	.	8gg
.	4a	.	8ff
.	.	.	8eeJ
=61	=61	=61	=61
8AL]	4b-	4.d	2.dd
8F#XJ	.	.	.
4G	4B-	.	.
.	.	8e	.
2D	8AL	[2f	.
.	8G	.	.
.	8A	.	[4a
.	8B-J	.	.
=62	=62	=62	=62
2AA	[2c	8fL]	4a]
.	.	8g	.
.	.	8f	4cc
.	.	8e-J	.
2BB-	8cL]	[2d	[2f
.	8c	.	.
.	8B-	.	.
.	8AJ	.	.
=63	=63	=63	=63
2BBX	[1G	2d_	8fL>]
.	.	.	8a
.	.	.	8g
.	.	.	8fJ
2C	.	8dL]	[2e
.	.	8d	.
.	.	8c	.
.	.	8B-J	.
=64	=64	=64	=64
2C#X	8GL]	2.A	2e_
.	8G	.	.
.	8F	.	.
.	8EJ	.	.
2D	2F	.	8eL]
.	.	.	8d
.	.	4G#	8c#X
.	.	.	8dJ
!!LO:LB:g=original
=65	=65	=65	=65
4AA	4E	4A	4c#X
4r	4r	4r	4ee
4A	2r	4r	4.aa
[4d	.	4a	.
.	.	.	8gg
=66	=66	=66	=66
8dL]	4d	4.dd	4.ff
8cJ	.	.	.
[4B-	[4g	.	.
.	.	8cc	8ee
8B-L]	8gL]	4.b-	4dd
8AJ	8fJ	.	.
4G	[4e	.	[4gg
.	.	8a	.
=67	=67	=67	=67
4.c	8eL]	4g	8ggL]
.	8dJ	.	8ffJ
.	4c	[4cc	[4ee
8B-	.	.	.
4.A	4.f	8ccL]	8eeL]
.	.	8b-J	8ddJ
.	.	[4a	4cc
8G	8e	.	.
=68	=68	=68	=68
4F	2.d	8aL]	8ffL
.	.	8gJ	8eeJ
8B-L	.	4f	4dd
8AJ	.	.	.
4G	.	8b-L	8ggL
.	.	8aJ	8ffJ
8cL	[4e	4g	4ee
8B-J	.	.	.
=69	=69	=69	=69
2A	8eL]	8ccL	2aa
.	8d	8b-J	.
.	8e	[4cc	.
.	8f#XJ	.	.
2G	2g	8ccL]	4.dd
.	.	8aJ	.
.	.	4b-	.
.	.	.	8ee
=70	=70	=70	=70
2D	2a	8a	4.ff
!!LO:MO:ori
*	*	*clefC1	*
!!LO:MO:end
.	.	8cc#XL	.
.	.	8dd	.
.	.	8eeJ	8gg
8r	4.d	2ff	2aa
8gL	.	.	.
8f	.	.	.
8eJ	8e	.	.
=71	=71	=71	=71
2.d	4.f	8r	2bb-
.	.	8aaL	.
.	.	8gg	.
.	8g	8ffJ	.
.	2a	8eeL	4.aa
.	.	8ddJ	.
4c#X	.	4ee	.
.	.	.	8gg
!!LO:LB:g=original
=72	=72	=72	=72
8dL	2b-	2dd	[2ff
8G	.	.	.
8A	.	.	.
8B-J	.	.	.
8cL	4.a	2r	8ffL]
8C	.	.	8ee
8D	.	.	8ff
8EJ	8g	.	8ggJ
=73	=73	=73	=73
8FL	[2f	1r	8aaL
8G	.	.	8gg
8A	.	.	8ff
8FJ	.	.	8aaJ
4B-	8fL]	.	[2dd
.	8e	.	.
8AL	8f#X	.	.
8GJ	8gJ	.	.
=74	=74	=74	=74
4F#X	8aL	1r	8dd]L
.	8g	.	8b-J
4A	8f#X	.	2cc
.	8aJ	.	.
8B-L	4d	.	.
8AA	.	.	.
8BB-	[4g	.	4b-
8CJ	.	.	.
=75	=75	=75	=75
8DL	8gL]	1r	[2a
8E	8c#X	.	.
8F	8d	.	.
8DJ	8fJ	.	.
8GL	[2B-	.	8aL<]
8F	.	.	8d
8E	.	.	8g
8GJ	.	.	8b-J
=76	=76	=76	=76
8C#XL>	8B-L]	1r	2.e
8D	8A	.	.
8E	8G	.	.
8C#J	8AJ	.	.
8DL	2F	.	.
8C	.	.	.
8BB-	.	.	[4d
8DJ	.	.	.
=77	=77	=77	=77
8GG#L	2E	1r	8dL]
8AAX	.	.	8c#X
8BBX	.	.	8d
8GG#J	.	.	8BXJ
8AAXL	4.A/	.	8c#L
8Gn	.	.	8eJ
8F	.	.	[4a
8EJ	8G	.	.
!!LO:MO:ori
*	*	*clefC3	*
!!LO:MO:end
!!LO:LB:g=original
=78	=78	=78	=78
[2D/	4.F	2d	8aL]
.	.	.	8b-
.	.	.	8a
.	8E	.	8gJ
8DL]	2D	4.a	8fL
8CJ	.	.	8e
4BB-	.	.	8d
.	.	8g	8eJ
=79	=79	=79	=79
8AAL	2C#X	4.f	8fL
8BB-	.	.	8gJ
8AA	.	.	[4a
8GGJ	.	8e	.
4FF	4.D	2d	8aL]
.	.	.	8g
4BB-	.	.	8f
.	8E	.	8gJ
=80	=80	=80	=80
2.AA	[2F	2c#X	8aL
.	.	.	8g
.	.	.	8f
.	.	.	8eJ
.	8FL]	4.d	8dL
.	8G	.	8b-
8BBXL	8F	.	8a
8C#XJ	8EJ	8e	8gJ
=81	=81	=81	=81
[2D	8DL	[2f	8fL
.	8F	.	8a
.	8G	.	8bX
.	8AJ	.	8cc#J
8DL]	[2B-	8fL]	[2dd
8C#X	.	8g	.
8D	.	8f	.
8EJ	.	8eJ	.
=82	=82	=82	=82
4F	8B-L]	[2d	8ddL]
.	8c	.	8ee-
4F#X	8B-	.	8dd
.	8AJ	.	8ccJ
[2G	8GL	4d]	8b-L
.	8B-	.	8dd
.	8c	4r	8eeX
.	8dJ	.	8ff#XJ
=83	=83	=83	=83
8GL]	2e-	8r	[2gg
8F#X	.	8aL	.
8G	.	8b-	.
8AJ	.	8ccJ	.
4.B-	4d	2dd	8ggL]
.	.	.	8aa
.	[4g	.	8gg
8BX	.	.	8ffJ
!!LO:LB:g=original
=84	=84	=84	=84
8c#L	4g]	[2a	8eeL
8A	.	.	8cc#XJ
8dX	8fL	.	[2dd
8cJ	8eJ	.	.
8BXL	8dL	8aL]	.
8AJ	8f	8aJ	.
[4B-	8e	[4g	8dd]L
.	8dJ	.	8ggJ
=85	=85	=85	=85
8B-]	4e	8gL]	4cc#X
4A	.	8aJ	.
.	4f	4b-	2dd
8G#	.	.	.
4AX	8eL	4.a	.
.	8dJ	.	.
4AA	4e	.	4cc#
.	.	[8g	.
=86	=86	=86	=86
*^	*	*^	*
2A	2D	2d	8g]L	2d	2dd
.	.	.	8eJ	.	.
.	.	.	4f#X	.	.
4.D	2rGG	8rF	4.a	2ryy	8r
.	.	8EL	.	.	8ddL
.	.	8F#X	.	.	8cc
8E	.	8GJ	8g	.	8b-J
*	*	*	*v	*v	*
=87	=87	=87	=87	=87
4.F#X	2D	8AL	4.f#X	8aL
.	.	8G	.	8b-
.	.	8A	.	8a
8G	.	8B-J	8e	8gJ
2A	2rGG	8cL	2d	8f#XL
.	.	8B-	.	8g
.	.	8c	.	8f#
.	.	8F#XJ	.	8aJ
=88	=88	=88	=88	=88
*	*	*	*	*^
2B-	2D	8GL	2c#X	8eL	2rFyy
.	.	8A	.	8d	.
.	.	8G	.	8e	.
.	.	8EJ	.	8gJ	.
4.A	2rGG	8AL	4.d	8f#XL	8rAyy
.	.	8G	.	8aJ	[4.a
.	.	8F#X	.	[4cc	.
8G	.	8EJ	8e	.	.
=89	=89	=89	=89	=89	=89
[2F#	8rGG	[2D	[2f#X	2cc_	2a_
.	8CL	.	.	.	.
.	8BB-	.	.	.	.
.	8AAJ	.	.	.	.
8F#L]	2GG	8DL]	8f#L]	8ccL]	8aL]
8E	.	8C#X	8g	8b-	8b-
8F	.	8D	8f#	8dd	8a
8GJ	.	8EJ	8eJ	8cc#XJ	8gJ
=90	=90	=90	=90	=90	=90
0A;y	0D;	0F#X;	0d;	0dd;	0f#X;y
*v	*v	*	*	*	*
*	*	*	*v	*v
==	==	==	==
*-	*-	*-	*-
!!!RDF**kern: > = above
!!!RDF**kern: < = below
!!!system-decoration: [(s1,s2,s3,s4)]
!!!URL-pdf: https://vmirror.imslp.org/files/imglnks/usimg/8/88/IMSLP504269-PMLP05843-BGA-25.1.pdf#page=18 @{SMS1}, page 18
!!!URL-pdf: https://s9.imslp.org/files/imglnks/usimg/1/1d/IMSLP469177-PMLP5843-Bach,_J.S._-_The_Art_of_the_Fugue.pdf#page=21 @{SMS2}, page 21
!!!URL-youtube: https://www.youtube.com/watch?v=OMtjlaDEMdI&t=944s Netherlands Bach Society/Malinowski
!!!URL-youtube: https://www.youtube.com/watch?v=N6sUlZa-IrU&t=944s Netherlands Bach Society
!!!SMS: @{SMS1}
!!!SMS1: Bach-Gesellschaft Ausgabe, Band 25.1 Leipzig: Breitkopf und Härtel, 1878. Plate B.W. XXV (1).
!!!SMS2: Bach-Gesellschaft Ausgabe, Band 47 Leipzig: Breitkopf und Härtel, 1926. Plate B.W. XLVII.
!!!PED: Wilhelm Rust
!!!PED-ODT: 1822-1892
!!!ONB: Die Kunst der Fuge nach dem Berliner Autograph in Anordnung und Lesarten
!!!ENC: Craig Stuart Sapp
!!!END: 2024/03/22
!!!EED: Craig Stuart Sapp
!!!EEV: 2024/03/28
!!!title: @{OPR} (@{SCA}), @{OTL}
!!!filter-keyboard: autostem -r | satb2gs | shed -e s/clefC./clefG2/I
!!!filter-modern: modori -m | autostem -r
